X: 16715
T: Happy To Meet, Sorry To Part
R: jig
M: 6/8
K: Gmajor
g|:edd BAB|GEF G2A|Bed BAG|BAA A2B|
edd BAB|GEF G2A|Bed B2A|1 BGF G2g:|2 BGF G(3Bcd||
|:ggg ged|Bdd deg|aaa aga|bee edd|
edd BAB|GEF G2A|Bed B2A|1 BGF G(3Bcd:|2 BGF G2g||

